Adwaita++/apps/scalable/sound-recorder.svg

<svg height="128" width="128" xmlns="http://www.w3.org/2000/svg" xmlns:xlink="http://www.w3.org/1999/xlink">
  <linearGradient id="c">
    <stop offset="0" stop-color="#d5d3cf"/>
    <stop offset=".036" stop-color="#e4e1de"/>
    <stop offset=".071" stop-color="#d5d3cf"/>
    <stop offset=".929" stop-color="#d5d3cf"/>
    <stop offset=".964" stop-color="#e4e1de"/>
    <stop offset="1" stop-color="#d5d3cf"/>
  </linearGradient>
  <linearGradient id="f" gradientUnits="userSpaceOnUse" x1="7.788" x2="119.788" xlink:href="#c" y1="276" y2="276"/>
  <linearGradient id="i" gradientUnits="userSpaceOnUse" x1="17" x2="20.5" y1="264.75" y2="264.75">
    <stop offset="0" stop-color="#e54b57"/>
    <stop offset="1" stop-color="#a51d2d"/>
  </linearGradient>
  <linearGradient id="h" gradientUnits="userSpaceOnUse" x1="112.875" x2="53.875" xlink:href="#c" y1="274.875" y2="274.875"/>
  <linearGradient id="g" gradientUnits="userSpaceOnUse" x1="100" x2="52" y1="223" y2="223">
    <stop offset="0" stop-color="#26a269"/>
    <stop offset="1" stop-color="#26a269" stop-opacity="0"/>
  </linearGradient>
  <g transform="translate(0 -172)">
    <rect fill="#f6f5f4" height="86" rx="8" width="112" x="7.79" y="200"/>
    <path d="m7.788 276v4c0 4.432 3.568 8 8 8h96c4.432 0 8-3.568 8-8v-4c0 4.432-3.568 8-8 8h-96c-4.432 0-8-3.568-8-8z" fill="url(#f)"/>
    <rect fill="#241f31" height="24" rx="1.945" width="96" x="16" y="207"/>
    <path d="m29 207h72v24h-72z" fill="url(#g)"/>
    <path d="m16 218h96v2h-96z" fill="#26a269" opacity=".623"/>
    <g fill="none" stroke-linecap="round">
      <path d="m100.916 218.998h-83.916" stroke="#57e389" stroke-width="2"/>
      <path d="m41 216.01v6.414m8-5.557v4.7m8-5.092v5.483m8-7.05v8.617m8-10.967v13.317m8-10.184v7.05m8-8.225v9.4" stroke="#33d17a" stroke-width="4"/>
      <path d="m41 218.693v1.047m8-1.307v1.567m8-1.169v1.478m8-2.659v3.133m8-4.783v6m8-4.35v3.133m8-2.741v2.35" stroke="#f9f06b" stroke-width="4"/>
    </g>
    <path d="m64 236v40h44.994a3 3 0 0 0 3.006-3.006v-33.988a3 3 0 0 0 -3.006-3.006z" fill="url(#h)"/>
    <path d="m64 231v40h44.994a3 3 0 0 0 3.006-3.006v-33.988a3 3 0 0 0 -3.006-3.006z" fill="#f6f6f6"/>
    <path d="m64 236v40h-44.994a3 3 0 0 1 -3.006-3.006v-33.988a3 3 0 0 1 3.006-3.006z" fill="url(#i)"/>
    <path d="m64 234v40h-44.994a3 3 0 0 1 -3.006-3.006v-33.988a3 3 0 0 1 3.006-3.006z" fill="#e01b24"/>
    <circle cx="40" cy="255" fill="#fff" r="8"/>
    <path d="m72 243v16l16-8zm16 0h5v16h-5zm8 0h5v16h-5z" fill="#241f31"/>
    <path d="m100 207h2v24h-2z" fill="#8ff0a4"/>
    <path d="m17.945 207a1.942 1.942 0 0 0 -1.946 1.945v2c0-1.077.868-1.945 1.946-1.945h92.11c1.077 0 1.945.868 1.945 1.945v-2a1.942 1.942 0 0 0 -1.945-1.945z" fill="#241f31" fill-opacity=".374"/>
  </g>
</svg>

<svg xmlns="http://www.w3.org/2000/svg" xmlns:xlink="http://www.w3.org/1999/xlink" width="128" height="128" version="1.0">
 <defs>
  <linearGradient id="e">
   <stop offset="0" stop-color="#26a269"/>
   <stop offset="1" stop-color="#26a269" stop-opacity="0"/>
  </linearGradient>
  <linearGradient id="d">
   <stop offset="0" stop-color="#e54b57"/>
   <stop offset="1" stop-color="#a51d2d"/>
  </linearGradient>
  <linearGradient id="b">
   <stop offset="0" stop-color="#deddda"/>
   <stop offset="1" stop-color="#9a9996"/>
  </linearGradient>
  <linearGradient id="a">
   <stop offset="0" stop-color="#57e389"/>
   <stop offset="1" stop-color="#57e389" stop-opacity=".204"/>
  </linearGradient>
  <linearGradient id="c">
   <stop offset="0" stop-color="#d5d3cf"/>
   <stop offset=".036" stop-color="#e4e1de"/>
   <stop offset=".071" stop-color="#d5d3cf"/>
   <stop offset=".929" stop-color="#d5d3cf"/>
   <stop offset=".964" stop-color="#e4e1de"/>
   <stop offset="1" stop-color="#d5d3cf"/>
  </linearGradient>
  <linearGradient id="f" x1="120" x2="568" y1="619.964" y2="619.964" gradientTransform="matrix(.25 0 0 .25 -22.212 121.009)" gradientUnits="userSpaceOnUse" xlink:href="#c"/>
  <linearGradient id="i" x1="23.712" x2="27.212" y1="268.75" y2="268.75" gradientTransform="translate(-6.712 -4)" gradientUnits="userSpaceOnUse" xlink:href="#d"/>
  <linearGradient id="h" x1="513.5" x2="277.5" y1="-88.536" y2="-88.536" gradientTransform="matrix(.25 0 0 .25 -15.5 297.009)" gradientUnits="userSpaceOnUse" xlink:href="#c"/>
  <linearGradient id="g" x1="106.712" x2="58.712" y1="227" y2="227" gradientTransform="translate(-6.712 -4)" gradientUnits="userSpaceOnUse" xlink:href="#e"/>
 </defs>
 <g transform="translate(0 -172)">
  <rect fill="#f6f5f4" width="112" height="86" x="7.79" y="200" rx="8" ry="8"/>
  <path fill="url(#f)" d="M7.788 276v4c0 4.432 3.568 8 8 8h96c4.432 0 8-3.568 8-8v-4c0 4.432-3.568 8-8 8h-96c-4.432 0-8-3.568-8-8z"/>
  <rect fill="#241f31" width="96" height="24" x="16" y="207" rx="1.945" ry="1.945"/>
  <rect fill="url(#g)" width="72" height="24" x="29" y="207" rx="0" ry="0"/>
  <path fill="#26a269" opacity=".623" d="M16 218h96v2H16z"/>
  <path fill="none" stroke="#57e389" stroke-linecap="round" stroke-width="2" d="M100.916 218.998H17"/>
  <path fill="none" stroke="#33d17a" stroke-linecap="round" stroke-width="4" d="M41 216.01v6.414M49 216.867v4.7M57 216.475v5.483M65 214.908v8.617M73 212.558v13.317M81 215.691v7.05M89 214.516v9.4"/>
  <path fill="none" stroke="#f9f06b" stroke-linecap="round" stroke-width="4" d="M41 218.693v1.047M49 218.433V220M57 218.831v1.478M65 217.65v3.133M73 216v6M81 217.65v3.133M89 218.042v2.35"/>
  <path fill="url(#h)" d="M64 236v40h44.994a3 3 0 0 0 3.006-3.006v-33.988a3 3 0 0 0-3.006-3.006z"/>
  <path fill="#f6f6f6" d="M64 231v40h44.994a3 3 0 0 0 3.006-3.006v-33.988a3 3 0 0 0-3.006-3.006z"/>
  <path fill="url(#i)" d="M64 236v40H19.006A3 3 0 0 1 16 272.994v-33.988A3 3 0 0 1 19.006 236z"/>
  <path fill="#e01b24" d="M64 234v40H19.006A3 3 0 0 1 16 270.994v-33.988A3 3 0 0 1 19.006 234z"/>
  <circle fill="#fff" cx="40" cy="255" r="8"/>
  <path fill="#241f31" d="M72 243v16l16-8zM88 243h5v16h-5zM96 243h5v16h-5z"/>
  <path fill="#8ff0a4" d="M100 207h2v24h-2z"/>
  <path fill="#241f31" fill-opacity=".374" d="M17.945 207a1.942 1.942 0 0 0-1.946 1.945v2c0-1.077.868-1.945 1.946-1.945h92.11c1.077 0 1.945.868 1.945 1.945v-2a1.942 1.942 0 0 0-1.945-1.945z"/>
 </g>
</svg>
